X:1
T:Title
%%score { ( 1 4 ) | ( 2 3 ) }
L:1/8
Q:1/4=112
M:4/4
K:C
V:1 treble nm="Grand Piano"
V:4 treble 
V:2 bass 
V:3 bass 
V:1
 [EG]2 [Ec]2 [FA]2 [Fc]2 | [EG]2 [CE]2 [EG]4 | C2 D2 E2 GF | E4 D4 | [Ec]2 [D^GB]2 [CFA]2 [^CGA]2 | %5
w: Alfred~Judson * * *|||||
 [D^Fd]2 [DAc]2 [DGB]4 | [EGA]2 [EAc]2 [DGB]2 [B,DG]2 | [C^FA]4 G4 | G2 A2 B2 c2 | d2 ^c2 d4 | %10
w: |||||
 G2 A2 B2 c2 | d6 G2 | [Ge]2 [^Gd]2 [EAc]2 [DGB]2 | [CFA]2 [_B,EG]2 F2 A2 | G2 (3GGG G2 (3GGG | %15
w: |||||
[M:9/8] G8- G |[M:1/4] G2 |[M:4/4][K:bass] [C,E,G,C]4 [G,CE]4 | [_B,^CEG]6 (3[B,CG][B,CF][B,CE] | %19
w: ||||
 [A,D]2 [A,DF]2 [DFA]2 [FAd]2 | c4 B2 G2 | [Ge]3 [Gc] [^Gc]3 [Gc] | [Ac]3 A A3 A | %23
w: ||||
 G2 E>G C2 [B,D]2 | E6 G2 | [C,E,G,C]4 [G,CE]4 | [_B,^CEG]6 (3[B,CG][B,CF][B,CE] | %27
w: ||||
 [A,D]2 [A,DF]2 [DFA]2 [FAd]2 | c4 B2 G2 | [Ge]3 [Gc] [^Gc]3 [Gc] | [Ac]3 A A3 A | G2 c>d e2 d2 | %32
w: |||||
 [Ec]6 z2 |] %33
w: |
V:2
 [C,C]2 [C,C]2 [F,C]2 [F,A,]2 | [C,C]2 [C,G,]2 [C,C]4 | [E,G,]2 [D,G,B,]2 [C,G,C]2 [F,A,D]2 | %3
 [G,B,]4 [G,B,]4 | [A,,A,]2 E,2 F,2 E,2 | D,2 ^F,2 G,4 | C,2 A,,2 D,2 D,2 | %7
 D,4[K:treble] [G,B,D]4 | [G,B,F]2 [G,CF]2 [G,DF]2 [G,CF]2 | [G,B,F]2 [G,_B,E]2 [G,=B,F]4 | %10
 [G,B,F]2 [G,CF]2 [G,DF]2 [G,CF]2 | [G,B,F]6[K:bass] G,2 | z2 .B,2 z4 | %13
 F,2 ^C,2 [D,A,D]2 [^F,C_E]2 | [G,CE]4 [G,CE]4 |[M:9/8] [G,B,F]8- [G,B,F] |[M:1/4] G,2 | %17
[M:4/4][K:bass] C,,4 [C,,C,]4 | [E,,E,]6 (3[E,,E,][E,,E,][E,,E,] | %19
 [F,,F,]2 [F,,F,]2 [F,,F,]2 [F,,F,]2 | [G,,G,]6 G,2 | [C,C]3 [C,C] [C,C]3 [C,C] | %22
 [F,C]3 [F,CD] [^F,CD]3 [F,CD] | [G,CE]2 [G,C]>[G,CE] [G,,E,G,]2 [G,,G,]2 | [C,G,C]6 G,2 | %25
 C,,4 [C,,C,]4 | [E,,E,]6 (3[E,,E,][E,,E,][E,,E,] | [F,,F,]2 [F,,F,]2 [F,,F,]2 [F,,F,]2 | %28
 [G,,G,]6 G,2 | [C,C]3 [C,C] [C,C]3 [C,C] | [F,C]3 [F,CD] [^F,CD]3 [F,CD] | %31
 [G,CE]2 [G,CE]>[G,B,G] [G,CG]2 [G,B,G]2 | [C,C]6 z2 |] %33
V:3
 x8 | x8 | x8 | x8 | x8 | x8 | x8 | x4[K:treble] x4 | x8 | x8 | x8 | x6[K:bass] x2 | %12
 [C,C]2 E,-[E,E] A,2 E,2 | x8 | x8 |[M:9/8] x9 |[M:1/4] x2 |[M:4/4][K:bass] x8 | x8 | x8 | x8 | %21
 x8 | x8 | x8 | x8 | x8 | x8 | x8 | x8 | x8 | x8 | x8 | x8 |] %33
V:4
 x8 | x8 | x8 | x8 | x8 | x8 | x8 | x8 | x8 | x8 | x8 | x8 | x8 | x8 | x8 |[M:9/8] x9 |[M:1/4] x2 | %17
[M:4/4][K:bass] x8 | x8 | x8 | [DF]6 z2 | x8 | x8 | x8 | x8 | x8 | x8 | x8 | [DF]6 z2 | x8 | x8 | %31
 x8 | x8 |] %33

